island-variant.svg

<svg fill="currentColor" viewBox="0 0 24 24"><path d="M15 15.26V13h-4l4-4h-3l3-3h-2l3-3 3 3h-2l3 3h-3l4 4h-4v2.76c2.13.71 3.68 1.91 4 3.24-1.7-.13-3.38-.46-5-1-1.21.61-2.63 1-4 1-1.29 0-2.83-.42-4-1-1.63.54-3.28.87-5 1 .54-2.23 4.4-4 9-4 1.05 0 2.06.09 3 .26M8 19s-3 1-6 1v2c3 0 6-1 6-1s2 1 4 1 4-1 4-1 3 1 6 1v-2c-3 0-6-1-6-1s-2 1-4 1-4-1-4-1"/></svg>

<svg  viewBox="0 0 24 24" fill="currentColor"><path  d="M15 15.26V13H11L15 9H12L15 6H13L16 3L19 6H17L20 9H17L21 13H17V15.76C19.13 16.47 20.68 17.67 21 19C19.3 18.87 17.62 18.54 16 18C14.79 18.61 13.37 19 12 19C10.71 19 9.17 18.58 8 18C6.37 18.54 4.72 18.87 3 19C3.54 16.77 7.4 15 12 15C13.05 15 14.06 15.09 15 15.26M8 19C8 19 5 20 2 20V22C5 22 8 21 8 21C8 21 10 22 12 22C14 22 16 21 16 21C16 21 19 22 22 22V20C19 20 16 19 16 19C16 19 14 20 12 20C10 20 8 19 8 19Z"/></svg>
